X: 35
T: Off She Goes
B: begged borrowed and stolen
M:6/8
L:1/8
R: jig
Q: 3/8=100
K:Dmajor
V:1 
|:"D"F2A "G"G2B|"A"ABc "D"d3|"D"F2A "G"G2B|"D"AFD "A"E2D|
 "D"F2A "G"G2B|"A"ABc "D"d2e|"D"f2d "G"g2f|"A"edc "D"d3:|
 |:"D"faf def|"G"gbg efg|"D"faf d2d|"A"c2B  A2g|
"D" faf def|"G"gbg efg|"D"f2d "G"g2f|"A"edc "D"d3:|
W: Off she goes to Donnybrook Fair
W: She has time and money to spare
W: Looks like rain but she does not care
W: Off she goes to Donnybrook Fair
% abcbook-tune_id 62828a3ac144d42a3bc849dd


% abcbook-boost 0
% abcbook-tablature 
% abcbook-transpose 
% abcbook-lastupdated 1652725431065
% abcbook-soundfonts 
% abcbook-repeats 3
% abc-sessionorg_id 1133
% abc-sessionorg_setting 0
% abc-sessionorg_setting_id 1133
% abc-boost 0

